X: 34746
T: Road To Lisdoonvarna, The
R: reel
M: 4/4
K: Dmixolydian
DAAD ABcA|GE E2 cE E2|DAAD ABcA|BcAG FD D2|
DAAD ABcA|GE E2 cE E2|DAAD ABcA|BcAG FD D2||
de (3fed cA A2|BG G2 cA A2|de (3fed cA A2|BcAG FD D2|
defd cA A2|BG G2 cA A2|defd cA A2|BcAG FD D2||

